X: 8207
T: Coolinarne
R: jig
M: 6/8
K: Gmajor
G2A B/c/dG|B/c/de ~g3|edB dB/c/d|edB {c/}AGE|
~G2 ABdG|B/c/de gze|{a/}edB dB/A/G|{c/}AGF GBA|
G2A B/c/dG|B/c/de !slide!g2 e|{a/}edB dB/c/d|edB {c/}AGE|
~G2A B/c/dG|Bc/d/e gze|{a/}edB dB/A/G|{c/}AGF ~G2 A|
Bdz egd|{c'/}agf ~g2a-|!slide!bag egd|B/c/dB {c/}AGA|
Bdd egd|{c'/}agf gza|{c'/}bag egB|{c/} AGF ~G2 A|
Bdd egd|{c'/}agf gza|{c'/}bag egd|B/c/dB {c/}AGA|
Bdd egd|{c'/}agf gza|{c'/}bag egB|{c/} AGF G3|

